icons/default/Art.svg

<rect x="3.06895" y="6.06445" width="28.8621" height="22.3537" fill="#EAEAEA" />
<ellipse cx="10.6618" cy="14.127" rx="2.27941" ry="2.40189" fill="white" />
<path
	d="M32.4655 4.75H2.53448C2.10254 4.75 1.75 5.09868 1.75 5.53223V28.9504C1.75 29.3839 2.10254 29.7326 2.53448 29.7326H32.4655C32.8975 29.7326 33.25 29.3839 33.25 28.9504V5.53223C33.25 5.09868 32.8975 4.75 32.4655 4.75ZM31.681 28.1681H3.31897V6.31446H31.681V28.1681Z"
	fill="black" stroke="black" stroke-width="0.5" />
<path
	d="M10.5521 16.7825C12.1934 16.7825 13.5286 15.453 13.5286 13.819C13.5286 12.184 12.1934 10.8545 10.5521 10.8545C8.91065 10.8545 7.57552 12.184 7.57552 13.8185C7.57552 15.453 8.91065 16.7825 10.5521 16.7825ZM10.5521 11.919C11.6039 11.919 12.4596 12.7716 12.4596 13.8185C12.4596 14.8654 11.6039 15.718 10.5521 15.718C9.50019 15.718 8.64448 14.8659 8.64448 13.819C8.64448 12.7721 9.50019 11.919 10.5521 11.919Z"
	fill="black" />
<path
	d="M15.1665 18.1585L14.8354 17.8289L14.4841 18.1369L5.76536 25.7805C5.76533 25.7805 5.7653 25.7805 5.76527 25.7806C5.7586 25.7864 5.75082 25.7893 5.7419 25.7893C5.73598 25.7893 5.73066 25.788 5.72645 25.7862C5.72268 25.7845 5.71901 25.7821 5.71517 25.7777C5.70338 25.7643 5.70477 25.7451 5.71804 25.7335L5.71824 25.7333L14.8132 17.7592C14.8132 17.7592 14.8132 17.7592 14.8132 17.7591C14.827 17.7471 14.8488 17.7474 14.8626 17.761C14.8627 17.761 14.8627 17.7611 14.8627 17.7611L17.3973 20.285L17.7665 20.6527L18.1187 20.2686L23.3533 14.5594C23.3584 14.5539 23.3657 14.5499 23.3738 14.5485C23.3817 14.5489 23.3885 14.5504 23.3938 14.5523C23.4 14.5545 23.4031 14.5568 23.4041 14.5577C23.4041 14.5578 23.4042 14.5578 23.4042 14.5578L29.8173 20.4118L29.8178 20.4122C29.8305 20.4238 29.8316 20.4429 29.8196 20.4559C29.8134 20.4627 29.8053 20.4667 29.7949 20.4672C29.7844 20.4676 29.7762 20.4644 29.7694 20.4582L23.7506 14.964L23.3822 14.6277L23.045 14.9954L18.1379 20.3464L17.8136 20.7001L18.1536 21.0386L20.7229 23.5971C20.7356 23.6097 20.7356 23.6284 20.7229 23.641C20.709 23.6549 20.6866 23.6549 20.6727 23.641L20.6727 23.641L15.1665 18.1585Z"
	fill="black" stroke="black" />

<path fill="#EAEAEA" d="M3.069 6.064h28.862v22.354H3.069z"/><ellipse cx="10.662" cy="14.127" rx="2.279" ry="2.402" fill="#fff"/><path d="M32.465 4.75H2.535a.783.783 0 0 0-.785.782V28.95c0 .434.353.783.784.783h29.931a.783.783 0 0 0 .785-.783V5.532a.783.783 0 0 0-.785-.782Zm-.784 23.418H3.319V6.314h28.362v21.854Z" stroke="#000" stroke-width=".5"/><path d="M10.552 16.782a2.973 2.973 0 0 0 2.977-2.963 2.974 2.974 0 0 0-2.977-2.965 2.973 2.973 0 0 0-2.976 2.965 2.973 2.973 0 0 0 2.976 2.963Zm0-4.863c1.052 0 1.908.853 1.908 1.9 0 1.046-.856 1.899-1.908 1.899a1.906 1.906 0 0 1-1.908-1.899c0-1.047.856-1.9 1.908-1.9Z"/><path d="m15.166 18.159-.33-.33-.352.308-8.719 7.643a.034.034 0 0 1-.023.01.04.04 0 0 1-.016-.004.032.032 0 0 1-.01-.008.03.03 0 0 1 .002-.044l9.095-7.975a.037.037 0 0 1 .05.002l2.534 2.524.37.368.352-.384 5.234-5.71a.037.037 0 0 1 .02-.01.07.07 0 0 1 .02.003.032.032 0 0 1 .011.006l6.413 5.854a.03.03 0 0 1 .003.044.034.034 0 0 1-.025.011.034.034 0 0 1-.026-.009l-6.018-5.494-.369-.336-.337.367-4.907 5.351-.324.354.34.339 2.569 2.558a.03.03 0 0 1 0 .044.035.035 0 0 1-.05 0l-5.506-5.482Z" stroke="#000"/>
